icons/shield-star-outline.svg

<svg xmlns="http://www.w3.org/2000/svg" width="24" height="24" viewBox="0 0 24 24">
  <path d="M12,1 C15.5169906,1 18.3742467,1.71431401 20.5547002,3.16794971 C20.8328989,3.35341548 21,3.66564681 21,4 L21,4 L21,12.9096249 C20.9981658,16.3441397 19.0497159,19.5919666 16.0272136,21.1044272 L16.0272136,21.1044272 L12.4472136,22.8944272 C12.1656861,23.0351909 11.8343139,23.0351909 11.5527864,22.8944272 L11.5527864,22.8944272 L7.97250014,21.104284 C4.95028406,19.5919666 3.00183418,16.3441397 3,12.9090909 L3,12.9090909 L3,4 C3,3.66564681 3.16710114,3.35341548 3.4452998,3.16794971 C5.62575334,1.71431401 8.48300939,1 12,1 Z M11.9999999,3 C9.15029309,3 6.85199016,3.50672557 5.09245014,4.5016552 L5.09245014,4.5016552 L4.99999986,4.555 L4.99999986,12.9085569 C5.00138724,15.5066311 6.43129904,17.976644 8.636365,19.1941391 L8.636365,19.1941391 L8.8672136,19.3155728 L11.9999999,20.881 L15.1325001,19.315716 C17.3905248,18.1858001 18.8956579,15.7647258 18.9947875,13.1773026 L18.9947875,13.1773026 L18.9999999,12.9090909 L18.9999999,4.556 L18.9075499,4.5016552 C17.2406172,3.55909028 15.0901411,3.0546919 12.4453733,3.00420832 L12.4453733,3.00420832 Z M12.2212829,7.18140769 C12.3198892,7.23007281 12.3997029,7.30988657 12.448368,7.40849288 L13.3225168,9.17971176 L15.2771729,9.46373992 C15.5504453,9.50344873 15.7397861,9.75717015 15.7000773,10.0304426 C15.684265,10.1392611 15.6330214,10.2398323 15.5542796,10.3165866 L14.1398772,11.6952882 L14.4737723,13.6420462 C14.5204528,13.9142144 14.3376589,14.1726924 14.0654907,14.2193729 C13.9571118,14.2379613 13.8456278,14.220304 13.7482976,14.1691344 L12,13.25 L10.2517024,14.1691344 C10.0072801,14.2976348 9.70496657,14.2036616 9.57646617,13.9592393 C9.52529663,13.861909 9.50763929,13.750425 9.52622772,13.6420462 L9.86012284,11.6952882 L8.4457204,10.3165866 C8.24797861,10.123836 8.24393246,9.80727937 8.43668307,9.60953758 C8.51343737,9.53079576 8.61400857,9.47955217 8.72282709,9.46373992 L10.6774832,9.17971176 L11.551632,7.40849288 C11.6738431,7.16086605 11.973656,7.05919655 12.2212829,7.18140769 Z"/>
</svg>

<svg xmlns="http://www.w3.org/2000/svg" viewBox="0 0 24 24">
  <path d="M12 1c3.52 0 6.37.71 8.55 2.17A1 1 0 0 1 21 4v8.91a9.23 9.23 0 0 1-4.97 8.2l-3.58 1.78a1 1 0 0 1-.9 0L7.97 21.1A9.23 9.23 0 0 1 3 12.9V4a1 1 0 0 1 .45-.83C5.63 1.7 8.48 1 12 1zm0 2c-2.85 0-5.15.5-6.9 1.5l-.1.05v8.36c0 2.6 1.43 5.07 3.64 6.28l.23.13L12 20.88l3.13-1.56A7.22 7.22 0 0 0 19 13.18l.01-.27V4.56l-.1-.06c-1.66-.94-3.81-1.45-6.45-1.5zm.22 4.18c.1.05.18.13.23.23l.87 1.77 1.96.28a.5.5 0 0 1 .27.86l-1.41 1.38.33 1.94a.5.5 0 0 1-.72.53L12 13.25l-1.75.92a.5.5 0 0 1-.72-.53l.33-1.94-1.41-1.38a.5.5 0 0 1 .27-.86l1.96-.28.87-1.77a.5.5 0 0 1 .67-.23z"/>
</svg>
